X:116
T:LNDNDRY2- A. G. Gilchrist's revised Londonderry Air
S:JEFDSS I, p. 119, 1934
Q:1/4=60
L:1/4
M:3/4
K:Eb
D/ E/ F/|(.G3/4F/4) G/ c/ B/ G/|(F/E/) C/ E/ G/ A/|\
(.B3/4c/4) B/ G/ E/ B/|F3/2 D/4 D/4 E/ F/|\
(.G3/4F/4) G/ c/ B/ G/|(F/E/) C3/4 =B,/4 (C/4D/4) (D/4F/4)|\
(.G3/4A/4) G/ F/ E/ F/|E3/2||B/ c/ d/|.e d/ c/4 c/4 B/ G/|\
(B/G/) E/ B/4 B/4 c/ d/|.e d/ c/ B/ G/|F3/2 B/ B/ B/|\
(.g3/4f/4) f/ e/ c/ e/|(B/G/) E/ D/ E/ F/|\
(G3/4c/4) B/ G/ (F/4E/4) (C/4D/4)|E3/2|]

